brandFactory_export/1.Light/Barco_1Light.svg

<?xml version="1.0" encoding="UTF-8"?>
<svg width="24px" height="24px" viewBox="0 0 24 24" version="1.1" xmlns="http://www.w3.org/2000/svg" xmlns:xlink="http://www.w3.org/1999/xlink">
    <title>1.Light/Barco_1Light</title>
    <g id="Symbols" stroke="none" stroke-width="1" fill="none" fill-rule="evenodd">
        <g id="1.Light/Barco_1Light" fill="#5CB615" fill-rule="nonzero">
            <path d="M20.5848739,19.287395 C21.892437,18.0302521 22.5915966,16.0504202 22.6689076,13.3915966 L1.04201681,13.3680672 L1.34789916,20.0907563 C1.35462185,20.1915966 1.40504202,20.7092437 1.79495798,20.7092437 L17.0420168,20.7092437 C17.0823529,20.702521 19.0184874,20.789916 20.5848739,19.287395 L20.5848739,19.287395 Z M3.57647059,9.04537815 C3.44201681,9.0487395 3.39831933,9.07563025 3.39495798,9.07563025 L3.39831933,12.2857143 L17.512605,12.2655462 C17.4319328,11.3142857 17.112605,10.5613445 16.5579832,10.0235294 C15.502521,8.99495798 13.9226891,9.04537815 13.902521,9.04537815 C13.8722689,9.06890756 9.71092437,9.03865546 6.67226891,9.03865546 C5.1394958,9.03865546 3.88571429,9.03865546 3.57647059,9.04537815 L3.57647059,9.04537815 Z M5.89915966,3.97647059 L9.86554622,3.97647059 L9.86554622,3.01512605 L5.89915966,3.01512605 L5.89915966,3.97647059 L5.89915966,3.97647059 Z M5.89915966,8.04033613 L9.86554622,8.04033613 L9.86554622,4.96806723 L5.89915966,4.96806723 L5.89915966,8.04033613 L5.89915966,8.04033613 Z M23.1663866,12.3966387 C23.4386555,12.3966387 23.6571429,12.6184874 23.6571429,12.8941176 C23.6571429,16.097479 22.8470588,18.4941176 21.2470588,20.0201681 C20.1378151,21.0756303 18.6722689,21.6773109 17.1428571,21.7042017 C17.0689076,21.7042017 17.0252101,21.7008403 17.0117647,21.7008403 L1.79495798,21.7008403 C0.719327731,21.7008403 0.389915966,20.6756303 0.366386555,20.1344538 L0.0336134454,12.8941176 C0.0201680672,12.6218487 0.228571429,12.389916 0.497478992,12.3764706 L0.524369748,12.3764706 L2.41344538,12.3798319 L2.44033613,9.10252101 C2.43361345,9.10252101 2.39327731,8.74957983 2.64537815,8.44033613 C2.78319328,8.26890756 3.05546218,8.06386555 3.55966387,8.05714286 C3.74117647,8.05378151 4.23865546,8.05378151 4.91764706,8.05378151 L4.91764706,2.51764706 C4.91764706,2.24201681 5.1394958,2.02016807 5.40840336,2.02016807 L10.3596639,2.02016807 C10.6319328,2.02016807 10.8504202,2.24201681 10.8504202,2.51764706 L10.8504202,8.04705882 L13.8823529,8.05042017 C13.9361345,8.05378151 15.8689076,7.97983193 17.2302521,9.30084034 C18.0067227,10.0537815 18.4168067,11.102521 18.4840336,12.3932773 L23.1663866,12.3966387 Z M5.26722689,16.5243697 C4.99159664,16.5277311 4.7697479,16.7495798 4.77310924,17.0252101 C4.77310924,17.3008403 4.99495798,17.5260504 5.26722689,17.5260504 C5.5394958,17.5260504 5.76470588,17.3008403 5.76470588,17.0252101 C5.76134454,16.7462185 5.5394958,16.5210084 5.26722689,16.5243697 Z M5.26722689,18.5210084 C4.44705882,18.5142857 3.78487395,17.8453782 3.78822255,17.0252101 C3.78822255,16.2016807 4.45042017,15.5294118 5.26722689,15.5294118 C6.08403361,15.5294118 6.74621849,16.2016807 6.74621849,17.0252101 C6.74621849,17.8487395 6.08067227,18.5210084 5.26722689,18.5210084 Z M10.2084034,16.5210084 C9.93277311,16.5243697 9.71092437,16.7462185 9.71092437,17.0218487 C9.71092437,17.297479 9.93277311,17.5226891 10.2084034,17.5226891 C10.4806723,17.5226891 10.7058824,17.297479 10.7058824,17.0218487 C10.7058824,16.7462185 10.4840336,16.5210084 10.2084034,16.5210084 Z M10.2084034,18.5210084 C9.39159664,18.5210084 8.72941176,17.8487395 8.72941176,17.0252101 C8.72941176,16.2016807 9.39495798,15.5294118 10.2084034,15.5294118 C11.0218487,15.5294118 11.687395,16.2016807 11.687395,17.0252101 C11.687395,17.8487395 11.0252101,18.5210084 10.2084034,18.5210084 Z M15.1529412,16.5210084 C14.8773109,16.5210084 14.6554622,16.7462185 14.6554622,17.0218487 C14.6554622,17.297479 14.8773109,17.5226891 15.1529412,17.5226891 C15.4252101,17.5226891 15.6470588,17.297479 15.6470588,17.0218487 C15.6470588,16.7462185 15.4252101,16.5210084 15.1529412,16.5210084 Z M15.1529412,18.5210084 C14.3327731,18.5142857 13.6705882,17.8453782 13.6739368,17.0252101 C13.6739368,16.2016807 14.3361345,15.5294118 15.1529412,15.5294118 C15.9663866,15.5294118 16.6319328,16.2016807 16.6319328,17.0252101 C16.6319328,17.8487395 15.9663866,18.5210084 15.1529412,18.5210084 Z" id="Barco_1Light"></path>
        </g>
    </g>
</svg>

<svg width="24" height="24" viewBox="0 0 24 24" xmlns="http://www.w3.org/2000/svg"><path d="M20.585 19.287c1.307-1.257 2.007-3.237 2.084-5.895l-21.627-.024.306 6.723c.007.1.057.618.447.618h15.247c.04-.006 1.976.08 3.543-1.422zM3.576 9.045c-.134.004-.178.03-.181.03l.003 3.21 14.115-.02c-.081-.95-.4-1.704-.955-2.241-1.055-1.029-2.635-.979-2.655-.979-.03.024-4.192-.006-7.23-.006-1.534 0-2.787 0-3.097.006zM5.9 3.976h3.967v-.96H5.899v.96zm0 4.064h3.967V4.968H5.899V8.04zm17.267 4.357c.273 0 .491.221.491.497 0 3.203-.81 5.6-2.41 7.126a6.113 6.113 0 01-4.104 1.684c-.074 0-.118-.003-.131-.003H1.795C.719 21.7.39 20.676.366 20.134l-.332-7.24a.492.492 0 01.463-.518h.027l1.89.004.026-3.277c-.006 0-.047-.353.205-.663.138-.171.41-.376.915-.383.181-.003.679-.003 1.358-.003V2.518c0-.276.221-.498.49-.498h4.952c.272 0 .49.222.49.498v5.53l3.032.002c.054.004 1.987-.07 3.348 1.25.777.754 1.187 1.803 1.254 3.093l4.682.004zM5.267 16.524a.496.496 0 00-.494.501c0 .276.222.501.494.501a.501.501 0 000-1.002zm0 1.997a1.491 1.491 0 01-1.479-1.496 1.49 1.49 0 011.48-1.496 1.49 1.49 0 011.478 1.496c0 .824-.665 1.496-1.479 1.496zm4.941-2a.501.501 0 000 1.002.501.501 0 000-1.002zm0 2a1.49 1.49 0 01-1.479-1.496c0-.823.666-1.496 1.48-1.496.813 0 1.478.673 1.478 1.496a1.49 1.49 0 01-1.479 1.496zm4.945-2a.5.5 0 00-.498.5.5.5 0 00.498.502.499.499 0 00.494-.501c0-.276-.222-.501-.494-.501zm0 2a1.491 1.491 0 01-1.48-1.496 1.49 1.49 0 011.48-1.496c.813 0 1.479.673 1.479 1.496 0 .824-.666 1.496-1.48 1.496z" fill="#5CB615" fill-rule="nonzero"/></svg>
